X: 1917
T: Uşşak Örnek-öz
C: Hüseyin Sadettin Arel
O: Turkey
F: http://compmusic.upf.edu/node/140
N: ussak--ornek-oz--sofyan--1--huseyin_sadettin_arel
N: makam= ussak
N: form= ornek-oz
N: usul= sofyan = 4/4
M: 4/4
L: 1/16
K: C _2/4B   
Q: 1/4=72
%%MIDI tuningsystem comma53
G6A2 A8  | B2c2 B4 A4 G4  | A4 B4 c4 d4  | \
w:  Uş  |  şak   |  Uş  | 
e6d2 d6z2  | e2f2 g2a2 g2f2 e2d2  | 
w:  şak   |  Uş  | 
c6B2 A4 B4  | d4 c4 B6A2  | G4 {B}A4 A4 z4  | |


